X:15
T:Parrish Waltz
C:Bonnie Dawson
Z:robin.beech@mcgill.ca
M:3/4
L:1/4
K:G
P:Part A
V:1
D |: G>AB | A>G D    | d/B/ d/e/ g | e>dB | e>fg |1
d>BG | A>B A/<G/ | D2D :|2 d>BG | "To Coda"A>G E//F3// | G2 (3d/e/f/ ||
V:2
B |: d>eg | d>d B/c/ | G2 A | c2 G | A>c A|1
f/e/ d/g/ B | c2B | A2B/c/ :|2 G>ED | D/E/ F/B,/ C | B,3 ||
V:3
B, |: B>CD | C>B,G, | B,CD | G,G,/B,/G, | C/D/ E/F/ G/A/ |1
B>GD | C2D | A,2D :|2 B/A/ G/G,/ B,/G,/ | A2A | G,3 ||
P:Part B
V:1
g>fe | f>ed | e/d/ e/f/ e/d/ | B>AG | g>fe | f>ed | d>e d//B3// | A2 (3d/e/f/ ||
g>fe | f>ed | e/d/ e/f/ e/d/ | B>AG | g>f e//g3// | f>e d//B3// | A>B A//G3// |"D.C." D2 D ||"Coda" G3 |]
V:2
z3 | z3 | G2A | G/A/ B/c/ d | B2c | A>BG | G2 E//G3// | F3 ||
z3 | z3 | G2A | G/A/ B/c/ d | B2c | d>B G | E>C C//E3// | F3 || B,3 |]
V:3
E D/C/ B,/C/ | DG,B, | C>B, A,/C/ | G,2B, | E E/F/ G/E/ | DG,B, | B,2G, | C>B,A, ||
E F/C/ B,/C/ | DG,B, | C>B, A,/C/ | G,2B, | E E/F/ G//E3// | D2 B, | C/D/ EG, | A,3 || G,3 |]
